X: 575
T:Trip to Pakistan
R:Reel
C:Nial Kenny
D:Tannahill Weavers' "Capernaum" album.
S:Sarah Jane Summers - Falkirk Fiddle Workshop
S:Ted Hastings &lt;ted@hastings.nu&gt; scots-l 2000-11-28
M:4/4
L:1/8
F:http://trillian.mit.edu/~jc/music/abc/Scotland/reel/TripToPaki
N: stanR_Bm.abc 2002-09-05 01:58:09 UT
N:Posted to the woodenflute mailing list September 2002
Z:bil
K:Bm
(B&gt;d) (f&gt;B) d2 (d&gt;f)|e2 (e&gt;d) c&gt;d e&gt;c|(B&gt;d) (f&gt;B) d2 (d&gt;f)|
e&gt;d c&gt;d B2 B2:| (B&gt;d) (f&gt;B) g3 e|f3 a (f&gt;e) (f&gt;d)|
(B&gt;d) (f&gt;B) g3 e|f&gt;e d&gt;f e2 e2:| vc&gt;d f&gt;u(c d&gt;f) c&gt;d|
B&gt;c d&gt;(B c&gt;d) b&gt;c|A&gt;c e&gt;(A c&gt;e) A&gt;c|e&gt;d c&gt;d B2 B2:|

